actions/22x22-dark/irc-channel-active.svg

<svg xmlns="http://www.w3.org/2000/svg" viewBox="0 0 22 22">
 <defs id="defs3051">
   <style type="text/css" id="current-color-scheme">
     .ColorScheme-Text {
       color:#f2f2f2;
     }
     </style>
 </defs>
   <path
      style="fill:currentColor;fill-opacity:1;stroke:none"
      d="m7.578125 3c-.8400367 0-1.5234375.6837786-1.5234375 1.5234375v1.5273437h-1.5292969c-.8397218 0-1.5234375.6834007-1.5234375 1.5234376 0 .8396589.6837157 1.5234374 1.5234375 1.5234374h1.5292969v3.5351558h-1.5292969c-.8397218 0-1.5234375.683905-1.5234375 1.523438s.6837157 1.523438 1.5234375 1.523438h1.5292969v1.527343c0 .840163.6834008 1.523438 1.5234375 1.523438.8397219 0 1.5214844-.683275 1.5214844-1.523438v-1.527343h3.5351566v1.527343c0 .840163.683904 1.523438 1.523437 1.523438.839974 0 1.523438-.683275 1.523438-1.523438v-1.527343h1.529297c.839847 0 1.521484-.683905 1.521484-1.523438s-.6817-1.523437-1.521484-1.523438h-1.529297v-3.5351558h1.529297c.83947 0 1.523437-.6837785 1.523437-1.5234374 0-.8400998-.683905-1.5234376-1.523437-1.5234376h-1.529297v-1.5273437c0-.8396589-.683779-1.5234375-1.523438-1.5234375-.840163 0-1.521484.6837786-1.521484 1.5234375v1.5273437h-3.5371096v-1.5273437c0-.8396589-.6817625-1.5234375-1.5214844-1.5234375zm.8457031 5.4199219h4.8886719v4.8906251h-4.8886719z"
      class="ColorScheme-Text" />
 <defs id="defs3051">
   <style type="text/css" id="current-color-scheme">
     .ColorScheme-Text {
       color:#43be80;
     }
     </style>
 </defs>
   <path
      style="fill:currentColor;fill-opacity:1;stroke:none"
      d="m15.083984 11.171875c-2.168399 0-3.914062 1.745663-3.914062 3.914063 0 2.168399 1.745663 3.914062 3.914062 3.914062 2.1684 0 3.914063-1.745663 3.914063-3.914062 0-2.1684-1.745663-3.914063-3.914063-3.914063z"
      class="ColorScheme-Text" />
</svg>

<svg xmlns="http://www.w3.org/2000/svg" viewBox="0 0 22 22">
  <defs id="defs3051">
    <style type="text/css" id="current-color-scheme">
      .ColorScheme-Text {
        color:#f2f2f2;
      }
      </style>
  </defs>
        <path
           style="fill:currentColor;fill-opacity:1;stroke:none" 
           class="ColorScheme-Text"
           d="M 7.578125 3 C 6.7380883 3 6.0546875 3.6837786 6.0546875 4.5234375 L 6.0546875 6.0507812 L 4.5253906 6.0507812 C 3.6856688 6.0507812 3.0019531 6.7341819 3.0019531 7.5742188 C 3.0019531 8.4138777 3.6856688 9.0976562 4.5253906 9.0976562 L 6.0546875 9.0976562 L 6.0546875 12.632812 L 4.5253906 12.632812 C 3.6856688 12.632812 3.0019531 13.316717 3.0019531 14.15625 C 3.0019531 14.995783 3.6856688 15.679688 4.5253906 15.679688 L 6.0546875 15.679688 L 6.0546875 17.207031 C 6.0546875 18.047194 6.7380883 18.730469 7.578125 18.730469 C 8.4178469 18.730469 9.0996094 18.047194 9.0996094 17.207031 L 9.0996094 15.679688 L 12.634766 15.679688 L 12.634766 17.207031 C 12.634766 18.047194 13.31867 18.730469 14.158203 18.730469 C 14.998177 18.730469 15.681641 18.047194 15.681641 17.207031 L 15.681641 15.679688 L 17.210938 15.679688 C 18.050785 15.679688 18.732422 14.995783 18.732422 14.15625 C 18.732422 13.316717 18.050722 12.632813 17.210938 12.632812 L 15.681641 12.632812 L 15.681641 9.0976562 L 17.210938 9.0976562 C 18.050408 9.0976562 18.734375 8.4138777 18.734375 7.5742188 C 18.734375 6.734119 18.05047 6.0507812 17.210938 6.0507812 L 15.681641 6.0507812 L 15.681641 4.5234375 C 15.681641 3.6837786 14.997862 3 14.158203 3 C 13.31804 3 12.636719 3.6837786 12.636719 4.5234375 L 12.636719 6.0507812 L 9.0996094 6.0507812 L 9.0996094 4.5234375 C 9.0996094 3.6837786 8.4178469 3 7.578125 3 z M 8.4238281 8.4199219 L 13.3125 8.4199219 L 13.3125 13.310547 L 8.4238281 13.310547 L 8.4238281 8.4199219 z "
            />
        <path
           style="opacity:1;fill:#43be80"
           d="M 15.083984 11.171875 C 12.915585 11.171875 11.169922 12.917538 11.169922 15.085938 C 11.169922 17.254337 12.915585 19 15.083984 19 C 17.252384 19 18.998047 17.254337 18.998047 15.085938 C 18.998047 12.917538 17.252384 11.171875 15.083984 11.171875 z "
            />
</svg>
